flaticon/transportation/hot-air-balloon-1.svg

<svg xmlns="http://www.w3.org/2000/svg" width="32" height="32" viewBox="0 0 24 24">
    <path d="M 17.167969 11.871094 C 18.34375 10.609375 19.0625 8.917969 19.0625 7.0625 C 19.0625 3.167969 15.894531 0 12 0 C 8.105469 0 4.9375 3.167969 4.9375 7.0625 C 4.9375 8.917969 5.65625 10.609375 6.832031 11.871094 L 8.832031 19.066406 L 8.832031 22.839844 C 8.832031 23.480469 9.351562 24 9.992188 24 L 14.007812 24 C 14.648438 24 15.167969 23.480469 15.167969 22.839844 L 15.167969 19.066406 Z M 11.488281 18.484375 L 9.730469 18.484375 L 8.210938 13.019531 C 9.171875 13.632812 10.289062 14.019531 11.488281 14.105469 Z M 12.511719 14.105469 C 13.710938 14.019531 14.828125 13.632812 15.789062 13.019531 L 14.269531 18.484375 L 12.511719 18.484375 Z M 12 1.019531 C 15.332031 1.019531 18.039062 3.730469 18.039062 7.0625 C 18.039062 10.394531 15.332031 13.101562 12 13.101562 C 8.667969 13.101562 5.957031 10.394531 5.957031 7.0625 C 5.957031 3.730469 8.667969 1.019531 12 1.019531 Z M 14.148438 22.839844 C 14.148438 22.917969 14.085938 22.980469 14.007812 22.980469 L 9.992188 22.980469 C 9.914062 22.980469 9.851562 22.917969 9.851562 22.839844 L 9.851562 19.507812 L 14.148438 19.507812 Z M 14.148438 22.839844"/>
</svg>

<svg xmlns="http://www.w3.org/2000/svg" width="32" height="32" viewBox="0 0 24 24">
    <path d="M17.168 11.871a7.033 7.033 0 0 0 1.895-4.809A7.07 7.07 0 0 0 12 0a7.07 7.07 0 0 0-7.063 7.063c0 1.855.72 3.546 1.895 4.808l2 7.195v3.774c0 .64.52 1.16 1.16 1.16h4.016c.64 0 1.16-.52 1.16-1.16v-3.774zm-5.68 6.613H9.73L8.21 13.02c.962.613 2.08 1 3.278 1.085zm1.024-4.379a7.01 7.01 0 0 0 3.277-1.085l-1.52 5.464h-1.757zM12 1.02c3.332 0 6.04 2.71 6.04 6.043A6.043 6.043 0 0 1 12 13.101a6.047 6.047 0 0 1-6.043-6.04A6.05 6.05 0 0 1 12 1.02zm2.148 21.82a.14.14 0 0 1-.14.14H9.992a.14.14 0 0 1-.14-.14v-3.332h4.296zm0 0"/>
</svg>
